X: 364
T: Bir Emele Bin Âh Çeksem
C: Nev´eser Kökdeş
O: Turkey
F: http://compmusic.upf.edu/node/140
N: segah--sarki--curcuna--bir_emele--neveser_kokdes
N: makam= segah
N: form= sarki
N: usul= curcuna = 10/8
M: 10/8
L: 1/16
K: C _1/4B _1/4e ^f 
Q: 1/4=168
%%MIDI tuningsystem comma53
B6c4B2 ^A2G4A2  | B8-B2cB c2d4z2  | d6e2 d2d2 c2c4B2  | \
w:  Bir  e me  |  le   |  bin  âh  *  çek  | 
B18z2  | 
w:  sem    | 
f6f4f2 g2e4d2  | g8-g2=f3ed4z2  | e6=f2 e2d2 B2c2 B2d2  | \
w:  Zevk  du ya  |  rım   |  her  dem  *  dâd  *  et  | 
d18z2  | 
w:  sem    | 
G2B2 d2c2 d2c2 B^AB4z2  | B6c4B2 ^A2G4A2  | \
w:  SAZ  |  Bir  e me  | 
B8-B2cB c2d4z2  | 
w:  le   | 
d6e2 d2d2 c2c4B2  | B18z2  | f6f4f2 g2e4d2  | \
w:  bin  âh  *  çek  |  sem    |  Zevk  du ya  | 
g8-g2=f3ed4z2  | 
w:  rım   | 
e6=f2 e2d2 B2c2 B2d2  | d18z2  | G2B2 d2c2 A2B2 c2d4z2  | \
w:  her  dem  *  dâd  *  et  |  sem    |  SAZ  | 
a4 g2g4g2 =f2e4g2  | 
w:  Sev *  mek  te *  sel  | 
=f8-=f2fe fge4d2  | d6e2 =f2e2 d2c4B2  | \
w:  lî   |  şu  boş  *  â *  lem  | 
c18B2  | B2d2 ^c2d4d2 =c2c2 B2^A2  | 
w:  de    |  Neş *  *  *  e  *  var  | 
B4 g2f2 a2g4=f2 e2d2  | d6e2 d2d2 c2c2 B2^A2  | \
w:  dır  *  aş *  kın   |  her  e *  le *  min  | 
B18z2  | G2B2 d2c2 A2B2 c2d4z2  | 
w:  de    |  SAZ  | 
a4 g2g4g2 =f2e4g2  | =f8-=f2fe fge4d2  | \
w:  Sev *  mek  te *  sel  |  lî   | 
d6e2 =f2e2 d2c4B2  | 
w:  şu  boş  *  â *  lem  | 
c18B2  | B2d2 ^c2d4d2 =c2c2 B2^A2  | \
w:  de    |  Neş *  *  *  e  *  var  | 
B4 g2f2 a2g4=f2 e2d2  | d6e2 d2d2 c2c2 B2^A2  | 
w:  dır  *  aş *  kın   |  her  e *  le *  min  | 
B18z2  | g4 b2d'4c'2 b^ab4z2  | b6b4b8z2  | \
w:  de    |  SAZ  |  Gön lüm de   | 
^a4 b2c'4b2 a2g4z2  | 
w:  aç *  sın  ba *  har   | 
c'4 b2b2 ^a2a2 g2f2 ^e2g2  | f18z2  | \
w:  şu  *  kış  *  gü *  nün  |  de    | 
g4 f2g4=f2 e2f2 e2d2  | d4 ^c2d4d2 c2B2 ^A2B2  | 
w:  Şi *  ir  do *  lu   |  pen *  be  ak *  şam   | 
d6d4d2 B2c4B2  | d18z2  | g4 b2d'4c'2 b^ab4z2  | \
w:  gü ne şin  |  de    |  SAZ  | 
b6b4b8z2  | ^a4 b2c'4b2 a2g4z2  | 
w:  Gön lüm de   |  aç *  sın  ba *  har   | 
c'4 b2b2 ^a2a2 g2f2 ^e2g2  | f18z2  | \
w:  şu  *  kış  *  gü *  nün  |  de    | 
g4 f2g4=f2 e2f2 e2d2  | d4 ^c2d4d2 c2B2 ^A2B2  | 
w:  Şi *  ir  do *  lu   |  pen *  be  ak *  şam   | 
d6d4d2 B2c4B2  | d18z2  | G2B2 d2c2 A2B2 c2d4z2  | \
w:  gü ne şin  |  de    |  SAZ  | 
a4 g2g4g2 =f2e4g2  | 
w:  Sev *  mek  te *  sel  | 
=f8-=f2fe fge4d2  | d6e2 =f2e2 d2c4B2  | \
w:  lî   |  şu  boş  *  â *  lem  | 
c18B2  | B2d2 ^c2d4d2 =c2c2 B2^A2  | 
w:  de    |  Neş *  *  *  e  *  var  | 
B4 g2f2 a2g4=f2 e2d2  | d6e2 d2d2 c2c2 B2^A2  | \
w:  dır  *  aş *  kın   |  her  e *  le *  min  | 
B18z2  | |


